X:268
T:Mrs Gordon's Favourite
B:4th Part of Gow's Repository, 1817
Z:Nigel Gatherer
M:2/4
L:1/8
K:Em
z|B,/A/E/>D/ EF|B>A F2|B2 E/G/F/E/|D>^C B2|E>DEF|B<d^cB|
B>B B/A/F/E/|E3:||B|e>e d/B/d/e/|f>f g/f/e/d/|B>A A/B/d/F/|
D3 B|e>e d/B/d/e/|f>f g/f/e/d/|B>A A/B/d/f/|e3 B|e>e d/B/d/e/|
f>f g/f/e/d/|B>A A/B/d/F/|D3 B,|e/d/e/f/ BA/F/|\
ED d>A|B>B B/A/F/E/|E3|]
<end>
<start>
